resources/themes/cura/icons/category_shell.svg

<?xml version="1.0" encoding="UTF-8" standalone="no"?>
<!-- Generator: Adobe Illustrator 16.0.0, SVG Export Plug-In . SVG Version: 6.00 Build 0)  -->

<svg
   xmlns:ns="&amp;#38;#38;#38;ns_ai;"
   xmlns:dc="http://purl.org/dc/elements/1.1/"
   xmlns:cc="http://creativecommons.org/ns#"
   xmlns:rdf="http://www.w3.org/1999/02/22-rdf-syntax-ns#"
   xmlns:svg="http://www.w3.org/2000/svg"
   xmlns="http://www.w3.org/2000/svg"
   xmlns:xlink="http://www.w3.org/1999/xlink"
   xmlns:sodipodi="http://sodipodi.sourceforge.net/DTD/sodipodi-0.dtd"
   xmlns:inkscape="http://www.inkscape.org/namespaces/inkscape"
   version="1.1"
   x="0px"
   y="0px"
   width="30px"
   height="30px"
   viewBox="0 0 30 30"
   enable-background="new 0 0 30 30"
   xml:space="preserve"
   id="svg3445"
   inkscape:version="0.91 r13725"
   sodipodi:docname="category_shell.svg"><metadata
     id="metadata3464"><rdf:RDF><cc:Work
         rdf:about=""><dc:format>image/svg+xml</dc:format><dc:type
           rdf:resource="http://purl.org/dc/dcmitype/StillImage" /><dc:title></dc:title></cc:Work></rdf:RDF></metadata><defs
     id="defs3462" /><sodipodi:namedview
     pagecolor="#000000"
     bordercolor="#666666"
     borderopacity="1"
     objecttolerance="10"
     gridtolerance="10"
     guidetolerance="10"
     inkscape:pageopacity="0"
     inkscape:pageshadow="2"
     inkscape:window-width="1280"
     inkscape:window-height="748"
     id="namedview3460"
     showgrid="false"
     inkscape:zoom="15.733333"
     inkscape:cx="7.9274541"
     inkscape:cy="15.727567"
     inkscape:window-x="-8"
     inkscape:window-y="-8"
     inkscape:window-maximized="1"
     inkscape:current-layer="g3449" /><switch
     id="switch3447"
     style="fill:#000000"><foreignObject
       requiredExtensions="http://ns.adobe.com/AdobeIllustrator/10.0/"
       x="0"
       y="0"
       width="1"
       height="1"><ns:pgfRef
         xlink:href="#adobe_illustrator_pgf" /></foreignObject><g
       ns:extraneous="self"
       id="g3449"
       style="fill:#000000"><g
         id="frame_30x30"
         display="none"
         style="fill:#000000"><rect
           display="inline"
           width="30"
           height="30"
           id="rect3452"
           style="fill:#000000" /></g><g
         id="frame_24x24"
         display="none"
         style="fill:#000000"><rect
           x="3"
           y="3"
           display="inline"
           fill="#C6C7C8"
           width="24"
           height="24"
           id="rect3455"
           style="fill:#000000" /></g><path
         sodipodi:nodetypes="cccccccccccccccccc"
         inkscape:connector-curvature="0"
         style="fill:#ffffff"
         id="path3458"
         d="M 21,11 24,3 6,3 9,11 3,27 27,27 Z M 9.937,10.648 7.443,4 22.556,4 20.063,10.648 19.932,11 l 0.132,0.352 5.495386,14.648398 c -21.1116911,-0.0086 0,0 -21.1116911,-0.0086 L 9.938,11.352 10.068,11 Z" /><path
         sodipodi:nodetypes="cccccccccccccccccc"
         inkscape:connector-curvature="0"
         style="fill:#ffffff"
         id="path3458-9"
         d="M 18,11 21,3 9,3 12,11 6,27 24,27 Z M 12.937,10.648 10.443,4 19.556,4 17.063,10.648 16.932,11 17.064,11.352 22.559386,26.000398 7.4476949,25.991798 12.938,11.352 13.068,11 Z" /></g></switch><ns:pgf
     id="adobe_illustrator_pgf" /></svg>

<svg xmlns="http://www.w3.org/2000/svg" viewBox="0 0 30 30">
    <switch>
        <g>
            <path d="M21 11l3-8H6l3 8-6 16h24zm-11.063-.352L7.443 4h15.113l-2.493 6.648-.131.352.132.352L25.559 26l-21.111-.008 5.49-14.64.13-.352z"/>
            <path d="M18 11l3-8H9l3 8-6 16h18zm-5.063-.352L10.443 4h9.113l-2.493 6.648-.131.352.132.352L22.559 26l-15.111-.008 5.49-14.64.13-.352z"/>
        </g>
    </switch>
</svg>
